resources/icons/20px/playbook.svg

<svg width="20" height="20" viewBox="0 0 20 20" fill="none" xmlns="http://www.w3.org/2000/svg">
<path d="M1.70711 0.292893C1.31658 -0.0976311 0.683417 -0.0976311 0.292893 0.292893C-0.0976311 0.683417 -0.0976311 1.31658 0.292893 1.70711L2.08579 3.5L0.292893 5.29289C-0.097631 5.68342 -0.097631 6.31658 0.292893 6.70711C0.683417 7.09763 1.31658 7.09763 1.70711 6.70711L3.5 4.91421L5.29289 6.70711C5.68342 7.09763 6.31658 7.09763 6.70711 6.70711C7.09763 6.31658 7.09763 5.68342 6.70711 5.29289L4.91421 3.5L6.70711 1.70711C7.09763 1.31658 7.09763 0.683417 6.70711 0.292893C6.31658 -0.0976311 5.68342 -0.0976311 5.29289 0.292893L3.5 2.08579L1.70711 0.292893Z" fill="black"/>
<path fill-rule="evenodd" clip-rule="evenodd" d="M16 20C18.2091 20 20 18.2091 20 16C20 13.7909 18.2091 12 16 12C13.7909 12 12 13.7909 12 16C12 18.2091 13.7909 20 16 20ZM16 18C17.1046 18 18 17.1046 18 16C18 14.8954 17.1046 14 16 14C14.8954 14 14 14.8954 14 16C14 17.1046 14.8954 18 16 18Z" fill="black"/>
<path d="M18.29 5.7L16 3.41V8C16 9.65685 14.6569 11 13 11H4C3.44772 11 3 11.4477 3 12V19C3 19.5523 2.55228 20 2 20C1.44772 20 1 19.5523 1 19V12C1 10.3431 2.34315 9 4 9H13C13.5523 9 14 8.55228 14 8V3.41L11.71 5.71C11.53 5.89 11.28 6 11 6C10.45 6 10 5.55 10 5C10 4.72 10.11 4.47 10.29 4.29L14.29 0.29C14.47 0.11 14.72 1.49012e-08 15 1.49012e-08C15.28 1.49012e-08 15.53 0.11 15.71 0.29L19.71 4.29C19.89 4.47 20 4.72 20 5C20 5.55 19.55 6 19 6C18.72 6 18.47 5.89 18.29 5.7Z" fill="black"/>
</svg>

<svg xmlns="http://www.w3.org/2000/svg" viewBox="0 0 20 20">
  <path d="M1.707.293A1 1 0 0 0 .293 1.707L2.086 3.5.293 5.293a1 1 0 0 0 1.414 1.414L3.5 4.914l1.793 1.793a1 1 0 0 0 1.414-1.414L4.914 3.5l1.793-1.793A1 1 0 0 0 5.293.293L3.5 2.086zM16 20a4 4 0 1 0 0-8 4 4 0 0 0 0 8m0-2a2 2 0 1 0 0-4 2 2 0 0 0 0 4"/>
  <path d="M18.29 5.7 16 3.41V8a3 3 0 0 1-3 3H4a1 1 0 0 0-1 1v7a1 1 0 1 1-2 0v-7a3 3 0 0 1 3-3h9a1 1 0 0 0 1-1V3.41l-2.29 2.3a1.003 1.003 0 0 1-1.42-1.42l4-4c.18-.18.43-.29.71-.29s.53.11.71.29l4 4A1.003 1.003 0 0 1 19 6c-.28 0-.53-.11-.71-.3"/>
</svg>
